resources/icons/color/eventstream.svg

<svg width="64" height="64" viewBox="0 0 64 64" fill="none" xmlns="http://www.w3.org/2000/svg">
<path d="M10 11C10 7.13401 13.134 4 17 4H47C50.866 4 54 7.13401 54 11V53C54 56.866 50.866 60 47 60H17C13.134 60 10 56.866 10 53V11Z" fill="url(#paint0_linear_41743_62643)"/>
<path d="M10 11C10 7.13401 13.134 4 17 4H47C50.866 4 54 7.13401 54 11V53C54 56.866 50.866 60 47 60H17C13.134 60 10 56.866 10 53V11Z" fill="url(#paint1_radial_41743_62643)" fill-opacity="0.2"/>
<path fill-rule="evenodd" clip-rule="evenodd" d="M47 5H17C13.6863 5 11 7.68629 11 11V53C11 56.3137 13.6863 59 17 59H47C50.3137 59 53 56.3137 53 53V11C53 7.68629 50.3137 5 47 5ZM17 4C13.134 4 10 7.13401 10 11V53C10 56.866 13.134 60 17 60H47C50.866 60 54 56.866 54 53V11C54 7.13401 50.866 4 47 4H17Z" fill="url(#paint2_linear_41743_62643)"/>
<path d="M38.5001 18L34.9999 18C30.0305 18.0001 26.0018 22.0278 26.0001 26.9968L26.0001 27V29C26.0001 31.2092 24.2092 33 22.0001 33H18.5001C18.2239 33 18.0001 32.7762 18.0001 32.5C18.0001 32.2239 18.2239 32 18.5001 32H22.0001C23.6569 32 25.0001 30.6569 25.0001 29L25.0001 27C25.0001 21.4772 29.4771 17.0001 34.9999 17L38.5001 17C38.7762 17 39.0001 17.2239 39.0001 17.5C39.0001 17.7761 38.7762 18 38.5001 18Z" fill="url(#paint3_linear_41743_62643)"/>
<path d="M35 22C31.6863 22 29 24.6863 29 28V31C29 33.7615 26.7614 36 24 36H18.5C18.2239 36 18 36.2239 18 36.5C18 36.7762 18.2239 37 18.5 37H24C27.3137 37 30 34.3137 30 31V28C30 25.2386 32.2386 23 35 23H41.5C41.7761 23 42 22.7762 42 22.5C42 22.2239 41.7761 22 41.5 22H35Z" fill="url(#paint4_linear_41743_62643)"/>
<path d="M26.0723 40H22.5001C22.2239 40 22.0001 40.2239 22.0001 40.5C22.0001 40.7762 22.2239 41 22.5001 41H26.0723C26.7927 41 27.4907 40.9039 28.1542 40.7239C28.0962 40.3944 28.0543 40.0594 28.0293 39.7198C27.4087 39.9022 26.752 40 26.0723 40Z" fill="url(#paint5_linear_41743_62643)"/>
<path d="M34.1221 29.7263C33.7374 29.8896 33.365 30.0762 33.0066 30.2844C33.118 28.4518 34.6395 27 36.5001 27H41.5001C41.7762 27 42.0001 27.2239 42.0001 27.5C42.0001 27.7762 41.7762 28 41.5001 28H36.5001C35.3894 28 34.4479 28.7243 34.1221 29.7263Z" fill="url(#paint6_linear_41743_62643)"/>
<path fill-rule="evenodd" clip-rule="evenodd" d="M33.068 33.5289C33.5542 35.213 32.5434 36.9638 30.8418 37.3848L29.9394 37.608C29.87 38.0525 29.834 38.5084 29.834 38.9731C29.834 39.4592 29.8734 39.9357 29.9492 40.3995L30.7825 40.6002C32.501 41.014 33.5225 42.7827 33.0223 44.478L32.7345 45.4532C33.4128 46.0489 34.1859 46.5326 35.0271 46.8767L35.789 46.0754C37.0071 44.7945 39.0496 44.7948 40.2673 46.0762L41.0376 46.8868C41.8773 46.5466 42.6495 46.0674 43.3281 45.4766L43.0222 44.4171C42.536 42.733 43.5468 40.9822 45.2484 40.5612L46.1501 40.3382C46.2194 39.8937 46.2555 39.4378 46.2555 38.9731C46.2555 38.4869 46.216 38.0102 46.1402 37.5464L45.3077 37.3459C43.5892 36.932 42.5677 35.1634 43.0679 33.468L43.3555 32.4935C42.6772 31.8976 41.9041 31.4138 41.0629 31.0696L40.3012 31.8706C39.0831 33.1515 37.0406 33.1512 35.8229 31.8699L35.0525 31.0591C34.2128 31.3992 33.4405 31.8783 32.762 32.469L33.068 33.5289ZM38.0447 41.2901C39.2815 41.2901 40.284 40.2527 40.284 38.9731C40.284 37.6934 39.2815 36.656 38.0447 36.656C36.808 36.656 35.8054 37.6934 35.8054 38.9731C35.8054 40.2527 36.808 41.2901 38.0447 41.2901Z" fill="url(#paint7_linear_41743_62643)"/>
<defs>
<linearGradient id="paint0_linear_41743_62643" x1="22.2222" y1="4" x2="31.1528" y2="60.1348" gradientUnits="userSpaceOnUse">
<stop stop-color="white"/>
<stop offset="1" stop-color="#EBEBEB"/>
</linearGradient>
<radialGradient id="paint1_radial_41743_62643" cx="0" cy="0" r="1" gradientUnits="userSpaceOnUse" gradientTransform="translate(24.0556 18.5833) rotate(62.354) scale(50.0471 38.5706)">
<stop offset="0.177083" stop-color="white"/>
<stop offset="1" stop-color="#B8B8B8"/>
</radialGradient>
<linearGradient id="paint2_linear_41743_62643" x1="24.2083" y1="4" x2="33.7019" y2="59.9445" gradientUnits="userSpaceOnUse">
<stop stop-color="#BBBBBB"/>
<stop offset="1" stop-color="#888888"/>
</linearGradient>
<linearGradient id="paint3_linear_41743_62643" x1="18" y1="17" x2="47.8398" y2="45.211" gradientUnits="userSpaceOnUse">
<stop stop-color="#E03F8F"/>
<stop offset="1" stop-color="#BD1E7B"/>
</linearGradient>
<linearGradient id="paint4_linear_41743_62643" x1="18" y1="17" x2="47.8398" y2="45.211" gradientUnits="userSpaceOnUse">
<stop stop-color="#E03F8F"/>
<stop offset="1" stop-color="#BD1E7B"/>
</linearGradient>
<linearGradient id="paint5_linear_41743_62643" x1="18" y1="17" x2="47.8398" y2="45.211" gradientUnits="userSpaceOnUse">
<stop stop-color="#E03F8F"/>
<stop offset="1" stop-color="#BD1E7B"/>
</linearGradient>
<linearGradient id="paint6_linear_41743_62643" x1="18" y1="17" x2="47.8398" y2="45.211" gradientUnits="userSpaceOnUse">
<stop stop-color="#E03F8F"/>
<stop offset="1" stop-color="#BD1E7B"/>
</linearGradient>
<linearGradient id="paint7_linear_41743_62643" x1="18" y1="17" x2="47.8398" y2="45.211" gradientUnits="userSpaceOnUse">
<stop stop-color="#E03F8F"/>
<stop offset="1" stop-color="#BD1E7B"/>
</linearGradient>
</defs>
</svg>

<svg xmlns="http://www.w3.org/2000/svg" width="64" height="64" fill="currentColor"><path fill="url(#a)" d="M10 11a7 7 0 0 1 7-7h30a7 7 0 0 1 7 7v42a7 7 0 0 1-7 7H17a7 7 0 0 1-7-7V11Z"/><path fill="url(#b)" fill-opacity=".2" d="M10 11a7 7 0 0 1 7-7h30a7 7 0 0 1 7 7v42a7 7 0 0 1-7 7H17a7 7 0 0 1-7-7V11Z"/><path fill="url(#c)" fill-rule="evenodd" d="M47 5H17a6 6 0 0 0-6 6v42a6 6 0 0 0 6 6h30a6 6 0 0 0 6-6V11a6 6 0 0 0-6-6ZM17 4a7 7 0 0 0-7 7v42a7 7 0 0 0 7 7h30a7 7 0 0 0 7-7V11a7 7 0 0 0-7-7H17Z" clip-rule="evenodd"/><path fill="url(#d)" d="M38.5 18H35a9 9 0 0 0-9 8.997V29a4 4 0 0 1-4 4h-3.5a.5.5 0 1 1 0-1H22a3 3 0 0 0 3-3v-2c0-5.523 4.477-10 10-10h3.5a.5.5 0 0 1 0 1Z"/><path fill="url(#e)" d="M35 22a6 6 0 0 0-6 6v3a5 5 0 0 1-5 5h-5.5a.5.5 0 0 0 0 1H24a6 6 0 0 0 6-6v-3a5 5 0 0 1 5-5h6.5a.5.5 0 1 0 0-1H35Z"/><path fill="url(#f)" d="M26.072 40H22.5a.5.5 0 1 0 0 1h3.572c.72 0 1.419-.096 2.082-.276-.058-.33-.1-.665-.125-1.004a6.93 6.93 0 0 1-1.957.28Z"/><path fill="url(#g)" d="M34.122 29.726c-.385.164-.757.35-1.115.558A3.5 3.5 0 0 1 36.5 27h5a.5.5 0 0 1 0 1h-5c-1.11 0-2.052.724-2.378 1.726Z"/><path fill="url(#h)" fill-rule="evenodd" d="M33.068 33.529a3.09 3.09 0 0 1-2.226 3.856l-.903.223a8.845 8.845 0 0 0 .01 2.792l.833.2a3.09 3.09 0 0 1 2.24 3.878l-.288.975a8.156 8.156 0 0 0 2.293 1.424l.762-.802a3.09 3.09 0 0 1 4.478.001l.77.81c.84-.34 1.613-.819 2.291-1.41l-.306-1.059a3.09 3.09 0 0 1 2.226-3.856l.902-.223a8.857 8.857 0 0 0-.01-2.792l-.832-.2a3.09 3.09 0 0 1-2.24-3.878l.288-.975a8.155 8.155 0 0 0-2.293-1.423l-.762.8a3.09 3.09 0 0 1-4.478 0l-.77-.81a8.15 8.15 0 0 0-2.291 1.409l.306 1.06Zm4.977 7.761c1.236 0 2.239-1.037 2.239-2.317 0-1.28-1.002-2.317-2.24-2.317-1.236 0-2.239 1.037-2.239 2.317 0 1.28 1.003 2.317 2.24 2.317Z" clip-rule="evenodd"/><defs><linearGradient id="a" x1="22.222" x2="31.153" y1="4" y2="60.135" gradientUnits="userSpaceOnUse"><stop stop-color="#fff"/><stop offset="1" stop-color="#EBEBEB"/></linearGradient><linearGradient id="c" x1="24.208" x2="33.702" y1="4" y2="59.944" gradientUnits="userSpaceOnUse"><stop stop-color="#BBB"/><stop offset="1" stop-color="#888"/></linearGradient><linearGradient id="d" x1="18" x2="47.84" y1="17" y2="45.211" gradientUnits="userSpaceOnUse"><stop stop-color="#E03F8F"/><stop offset="1" stop-color="#BD1E7B"/></linearGradient><linearGradient id="e" x1="18" x2="47.84" y1="17" y2="45.211" gradientUnits="userSpaceOnUse"><stop stop-color="#E03F8F"/><stop offset="1" stop-color="#BD1E7B"/></linearGradient><linearGradient id="f" x1="18" x2="47.84" y1="17" y2="45.211" gradientUnits="userSpaceOnUse"><stop stop-color="#E03F8F"/><stop offset="1" stop-color="#BD1E7B"/></linearGradient><linearGradient id="g" x1="18" x2="47.84" y1="17" y2="45.211" gradientUnits="userSpaceOnUse"><stop stop-color="#E03F8F"/><stop offset="1" stop-color="#BD1E7B"/></linearGradient><linearGradient id="h" x1="18" x2="47.84" y1="17" y2="45.211" gradientUnits="userSpaceOnUse"><stop stop-color="#E03F8F"/><stop offset="1" stop-color="#BD1E7B"/></linearGradient><radialGradient id="b" cx="0" cy="0" r="1" gradientTransform="matrix(23.22222 44.33329 -34.16705 17.89704 24.056 18.583)" gradientUnits="userSpaceOnUse"><stop offset=".177" stop-color="#fff"/><stop offset="1" stop-color="#B8B8B8"/></radialGradient></defs></svg>
